!!!OTL: FRISCH AUF SOLDATENBLUT
!!!ARE: Europa, Mitteleuropa, Deutschland
!!!SCT: E1354
!!!YEM: Copyright 1995, estate of Helmut Schaffrath.
**kern
*ICvox
*Ivox
*M4/4
*k[b-e-]
*B-:
{4f
=1
4b-
4b-
4f
4f
=2
2d}
{2f
=3
4dd
4dd
4cc
4cc
=4
2b-
4r}
{4b-
=5
4b-
4dd
4ff
4dd
=6
4.dd
8cc
4cc}
{4cc
=7
4b-
4b-
4dd
4b-
=8
4.b-
8a
2a}
=9
{2g
4b-
4g
=10
4f
8f
8d
4d}
{4f
=11
4dd
8dd
8b-
4cc
8cc
8a
=12
2b-
4r}
==
!!!AGN: Staende -, Soldaten -, Kriegs - Lied
!!!ONB: ESAC (Essen Associative Code) Database: ERK3
!!!AMT: simple quadruple
!!!AIN: vox
!!!EED: Helmut Schaffrath
!!!EEV: 1.0
*-
